storage/app/icons/phosphoricons/regular/identification-card.svg

<svg xmlns="http://www.w3.org/2000/svg" fill="currentColor" viewBox="0 0 256 256"><path d="M200 112a8 8 0 0 1-8 8h-40a8 8 0 0 1 0-16h40a8 8 0 0 1 8 8m-8 24h-40a8 8 0 0 0 0 16h40a8 8 0 0 0 0-16m40-80v144a16 16 0 0 1-16 16H40a16 16 0 0 1-16-16V56a16 16 0 0 1 16-16h176a16 16 0 0 1 16 16m-16 144V56H40v144zm-80.26-34a8 8 0 1 1-15.5 4c-2.63-10.26-13.06-18-24.25-18s-21.61 7.74-24.25 18a8 8 0 1 1-15.5-4 39.84 39.84 0 0 1 17.19-23.34 32 32 0 1 1 45.12 0 39.76 39.76 0 0 1 17.2 23.34ZM96 136a16 16 0 1 0-16-16 16 16 0 0 0 16 16"/></svg>

<svg xmlns="http://www.w3.org/2000/svg" viewBox="0 0 256 256" fill="currentColor"><path d="M200,112a8,8,0,0,1-8,8H152a8,8,0,0,1,0-16h40A8,8,0,0,1,200,112Zm-8,24H152a8,8,0,0,0,0,16h40a8,8,0,0,0,0-16Zm40-80V200a16,16,0,0,1-16,16H40a16,16,0,0,1-16-16V56A16,16,0,0,1,40,40H216A16,16,0,0,1,232,56ZM216,200V56H40V200H216Zm-80.26-34a8,8,0,1,1-15.5,4c-2.63-10.26-13.06-18-24.25-18s-21.61,7.74-24.25,18a8,8,0,1,1-15.5-4,39.84,39.84,0,0,1,17.19-23.34,32,32,0,1,1,45.12,0A39.76,39.76,0,0,1,135.75,166ZM96,136a16,16,0,1,0-16-16A16,16,0,0,0,96,136Z"/></svg>
